X: 37
T: Callam Phiter
%R: reel
B: Stewart "A Select Collection of Airs, Jigs, Marches and Reels", ca.1784, p.17 #37
F: http://imslp.org/wiki/A_Select_Collection_of_Airs,_Jigs,_Marches_and_Reels_%28Various%29
Z: 2017 John Chambers <jc:trillian.mit.edu>
M: C|
L: 1/8
K: Ador
a |\
ge e/e/e g2ga | ge e/e/e (dB)Ba |\
ge e/e/e g2ga | ge e/e/e A2A :|
|: B |\
GB B/B/B (dB)Ba | ge e/e/e (dB)Bd |\
GB B/B/B (dB)Ba | ge e/e/e A2A :|
